fs/premium_20_regular.svg

<svg viewBox="0 0 20 20" fill="none" xmlns="http://www.w3.org/2000/svg" height="1em" width="1em">
  <path d="M5.5 3C5.32437 3 5.16162 3.09215 5.07126 3.24275L2.07126 8.24275C1.96184 8.42511 1.97975 8.65672 2.11589 8.82009L9.61589 17.8201C9.71089 17.9341 9.85161 18 10 18C10.1484 18 10.2891 17.9341 10.3841 17.8201L17.8841 8.82009C18.0203 8.65672 18.0382 8.42511 17.9288 8.24275L14.9288 3.24275C14.8384 3.09215 14.6756 3 14.5 3H5.5ZM3.3831 8L5.7831 4H7.76154L6.16154 8H3.3831ZM6.15803 9L8.42472 14.8286L3.56752 9H6.15803ZM10 16.1203L7.23099 9H12.769L10 16.1203ZM7.23858 8L8.83858 4H11.1614L12.7614 8H7.23858ZM13.8385 8L12.2385 4H14.2169L16.6169 8H13.8385ZM13.842 9H16.4325L11.5753 14.8287L13.842 9Z" fill="#212121"/>
</svg>

<svg viewBox="0 0 20 20" fill="none" xmlns="http://www.w3.org/2000/svg" height="1em" width="1em">
  <path d="M5.5 3a.5.5 0 0 0-.429.243l-3 5a.5.5 0 0 0 .045.577l7.5 9a.5.5 0 0 0 .768 0l7.5-9a.5.5 0 0 0 .045-.577l-3-5A.5.5 0 0 0 14.5 3h-9ZM3.383 8l2.4-4h1.979l-1.6 4H3.383Zm2.775 1 2.267 5.829L3.568 9h2.59ZM10 16.12 7.231 9h5.538L10 16.12ZM7.239 8l1.6-4h2.322l1.6 4H7.24Zm6.6 0-1.6-4h1.978l2.4 4h-2.779Zm.003 1h2.59l-4.857 5.829L13.842 9Z" fill="#212121"/>
</svg>
